Suru++-Ubuntu/apps/symbolic/fuse-symbolic.svg

<svg width="16" height="16" version="1.1" xmlns="http://www.w3.org/2000/svg">
 <path d="m8.5000017 3.9999875 2.4999983 4.0000251-2.4999983 3.9999874h2.0000013l1.5-2.4004913 1.5 2.4004913h1.999997l-2.499998-3.9999874 2.499998-4.0000251h-1.999997l-1.5 2.4004913-1.5-2.4004913zm-8.0000012 0h7.000002v1.0000252l-4.500001 5.5000063h4.500001v1.499981h-7.000002v-0.999987l4.4999996-5.5000066h-4.4999996z" style="fill:#808080"/>
</svg>

<svg xmlns="http://www.w3.org/2000/svg" width="16" height="16" version="1.1">
 <path style="fill:#808080" d="M 8.5000017,3.9999875 11,8.0000126 8.5000017,12 h 2.0000013 l 1.5,-2.4004913 1.5,2.4004913 H 15.5 L 13.000002,8.0000126 15.5,3.9999875 h -1.999997 l -1.5,2.4004913 -1.5,-2.4004913 z m -8.00000115,0 H 7.5000025 v 1.0000252 l -4.500001,5.5000063 h 4.500001 V 12 H 0.50000055 V 11.000013 L 5.0000001,5.5000064 H 0.50000055 Z"/>
</svg>
